X:980
T:Starters Orders
C:Colin Hume, 1984
L:1/8
M:6/8
R:Jig
S:Colin Hume's website,  colinhume.com  - chords can also be printed below the stave.
Q:3/8=120
%%MIDI chordname dim 0 3 6 9
K:G
P:A
|: "G"d3 d2G | "D"FA2- A3 | "C"c3 c2E | "D7"FA2- A3 |\
"G"d3 d2G | "D"FA2- A2F | "C"EcB "D7"AGF |1 "G"G3 Bc^c :|2 "G"G3 "G7"=F3 |
P:B
"E7"E^GB e2d | "Am"c3 A3 | "D"DFA d2c | "G"B3- B2B |\
"C"cGE cGE | "G"BGD BGD | "A7"ABA GFE | "D"D2E FGA |
P:C
"Gdim"[GB]3 "Am"[Ac]3 | "Gdim/Bb"[^A^c]3 "G/B"[Bd]3 |\
"C"[ce]2d c2B | "D"A3- "D7"A2D | "G"GBD GBD | "/"GB2- B2G | "Am"AcB AGF | "C"E2z "D7"D2z |]

